X: 13189
T: First Snow
R: reel
M: 4/4
K: Amixolydian
eg|:ag2e dcAA|BcBA cdee|ag2e dcAA|cdec BGEG|
FEDF E^GAc|BcdA cdec|egdg edcA|1 BdcB Aceg:|2 BdcB A2A=c||
BAGF E3A|BAGF EFGE|FEDF E^GAc|BcdA cdeA|BAGF EFGA|
BG (3FGF EFGE|FEDF E^GAc|BcdA cdec|egdg edcA|BdcB A2eg||

